libs/ui/packages/crypto-icons/src/svg/EURA.svg

<svg width="24" height="24" viewBox="0 0 24 24" fill="none" xmlns="http://www.w3.org/2000/svg">
<path fill-rule="evenodd" clip-rule="evenodd" d="M11.9551 23.9101C18.5577 23.9101 23.9101 18.5577 23.9101 11.9551C23.9101 5.35247 18.5577 0 11.9551 0C5.35247 0 0 5.35247 0 11.9551C0 18.5577 5.35247 23.9101 11.9551 23.9101ZM11.9464 3.64062L18.4765 10.3087L15.2115 13.6424L11.9464 10.3087L8.68082 13.6424L5.4158 10.3087L11.9464 3.64062ZM5.94189 19.679V15.5293H8.67618V16.3953H6.87581V17.1542H8.51765V18.0201H6.87581V18.813H8.71015V19.679H5.94189ZM10.802 19.572C10.5565 19.4432 10.3658 19.261 10.2321 19.026L10.2312 19.0244C10.1017 18.7856 10.0387 18.5074 10.0387 18.1929V15.5293H10.9726V18.2156C10.9726 18.4387 11.0348 18.6036 11.1496 18.7219C11.2667 18.8387 11.4397 18.9036 11.6833 18.9036C11.9273 18.9036 12.0979 18.8385 12.2109 18.7223L12.2118 18.7214C12.3302 18.603 12.3939 18.4383 12.3939 18.2156V15.5293H13.3278V18.1929C13.3278 18.5078 13.2628 18.7862 13.1293 19.0251C12.9991 19.261 12.8078 19.4436 12.5583 19.5723C12.312 19.6975 12.0189 19.7582 11.6833 19.7582C11.3476 19.7582 11.0534 19.6977 10.8036 19.5729L10.802 19.572ZM14.8498 19.679V15.5293H16.6642C16.9241 15.5293 17.1552 15.5746 17.3549 15.6684C17.5544 15.762 17.7119 15.8958 17.8241 16.0704C17.937 16.246 17.9917 16.4509 17.9917 16.6813V16.7492C17.9917 17.0018 17.9315 17.216 17.8025 17.3836C17.7067 17.5082 17.5926 17.6074 17.4608 17.6803C17.568 17.7089 17.6595 17.7643 17.7313 17.8489C17.8325 17.9643 17.8785 18.1144 17.8785 18.2892V19.679H16.9446V18.3967C16.9446 18.3237 16.9252 18.2733 16.8938 18.237L16.8926 18.2357L16.8914 18.2342C16.8714 18.2092 16.8281 18.1843 16.7322 18.1843H15.7837V19.679H14.8498ZM16.938 16.5151C16.8622 16.4394 16.7493 16.3953 16.585 16.3953H15.7837V17.3183H16.585C16.7458 17.3183 16.8576 17.2759 16.9336 17.2029C17.0149 17.1245 17.0578 17.0216 17.0578 16.8851V16.8285C17.0578 16.6908 17.0161 16.5903 16.9393 16.5164L16.938 16.5151Z" fill="#AAC4FD"/>
</svg>

<svg xmlns="http://www.w3.org/2000/svg" width="24" height="24" viewBox="0 0 24 24" fill="none"><path fill="#aac4fd" fill-rule="evenodd" d="M11.955 23.91c6.603 0 11.955-5.352 11.955-11.955S18.558 0 11.955 0 0 5.352 0 11.955 5.352 23.91 11.955 23.91m-.009-20.27 6.53 6.669-3.264 3.333-3.266-3.333-3.265 3.333-3.265-3.333zM5.942 19.68v-4.15h2.734v.866h-1.8v.76h1.642v.865H6.876v.793H8.71v.866zm4.86-.107a1.4 1.4 0 0 1-.57-.546v-.002a1.7 1.7 0 0 1-.193-.831V15.53h.934v2.687c0 .223.062.388.177.506.117.117.29.182.533.182s.415-.066.528-.182c.12-.119.183-.284.183-.506V15.53h.934v2.664q.001.473-.199.832-.196.355-.57.547-.371.188-.876.186-.504.001-.88-.185zm4.048.107v-4.15h1.814q.39 0 .69.14.301.14.47.401.169.264.168.611v.068c0 .253-.06.467-.19.635q-.143.186-.341.296a.52.52 0 0 1 .27.169.65.65 0 0 1 .147.44v1.39h-.933v-1.282a.23.23 0 0 0-.051-.16l-.001-.001-.002-.002c-.02-.025-.063-.05-.159-.05h-.948v1.495zm2.088-3.164c-.076-.076-.189-.12-.353-.12h-.801v.923h.801c.16 0 .273-.042.349-.115a.42.42 0 0 0 .124-.318v-.057a.4.4 0 0 0-.119-.312z" clip-rule="evenodd"/></svg>
